usr/share/icons/biglinux-icons-material/scalable/devices/audio-speakers.svg

<svg width="24" height="24" viewBox="0 0 24 24" fill="none" xmlns="http://www.w3.org/2000/svg">
<path fill-rule="evenodd" clip-rule="evenodd" d="M9.59606 1.11363C9.7159 1.1149 9.83045 1.09964 9.9397 1.06782C11.3755 0.973743 12.8111 0.97756 14.2467 1.07916C15.5484 1.18056 16.8085 1.46299 18.0269 1.92641C20.0525 2.76036 21.4386 4.20681 22.185 6.26577C22.6119 7.50541 22.8639 8.78014 22.9411 10.0899C23.0478 11.7346 23.0096 13.3757 22.8265 15.0132C22.6895 16.1641 22.3916 17.2709 21.933 18.3335C21.0824 20.176 19.704 21.4469 17.7978 22.1462C16.2531 22.6681 14.6647 22.9429 13.0325 22.9705C11.1966 23.0662 9.37915 22.9288 7.57999 22.5586C4.2684 21.8209 2.22559 19.8019 1.45159 16.5018C1.1231 15.0162 0.974206 13.5125 1.00484 11.9907C0.968173 10.3724 1.13999 8.77714 1.52032 7.20475C2.33171 4.11912 4.2905 2.20705 7.3967 1.46856C8.12049 1.2916 8.85361 1.17331 9.59606 1.11363Z" fill="url(#paint0_radial_2_105)"/>
<path d="M7.49378 4C6.66623 4 6 4.67077 6 5.50397V18.496C6 19.3292 6.66623 20 7.49378 20H16.5062C17.3338 20 18 19.3292 18 18.496V5.50397C18 4.67077 17.3338 4 16.5062 4H7.49378ZM12 6.04351C12.2257 6.04352 12.4492 6.08829 12.6578 6.17527C12.8663 6.26225 13.0558 6.38973 13.2154 6.55044C13.375 6.71115 13.5016 6.90193 13.588 7.1119C13.6743 7.32187 13.7188 7.54691 13.7188 7.77417C13.7188 8.23312 13.5377 8.67327 13.2153 8.9978C12.893 9.32233 12.4558 9.50465 12 9.50467C11.5442 9.50465 11.107 9.32233 10.7847 8.9978C10.4623 8.67327 10.2812 8.23313 10.2812 7.77417C10.2812 7.54691 10.3257 7.32187 10.412 7.1119C10.4984 6.90193 10.625 6.71115 10.7846 6.55044C10.9442 6.38973 11.1337 6.26225 11.3422 6.17527C11.5508 6.08829 11.7743 6.04352 12 6.04351ZM12.0002 10.7149C12.9766 10.7149 13.9131 11.1055 14.6036 11.8007C15.2941 12.4959 15.682 13.4387 15.682 14.4219C15.682 15.405 15.2941 16.3479 14.6036 17.0431C13.9132 17.7384 12.9767 18.1289 12.0002 18.129C11.5166 18.129 11.0378 18.0331 10.5911 17.8468C10.1444 17.6605 9.73848 17.3874 9.39657 17.0432C9.05467 16.699 8.78345 16.2903 8.59841 15.8405C8.41338 15.3907 8.31814 14.9087 8.31815 14.4219C8.31818 13.4387 8.70612 12.4958 9.39663 11.8006C10.0871 11.1054 11.0237 10.7149 12.0002 10.7149ZM12.0002 12.653C11.7694 12.653 11.541 12.6987 11.3278 12.7876C11.1146 12.8765 10.9209 13.0068 10.7578 13.171C10.5946 13.3353 10.4652 13.5303 10.3769 13.7449C10.2886 13.9595 10.2431 14.1895 10.2431 14.4219C10.2431 14.6542 10.2885 14.8842 10.3768 15.0989C10.4651 15.3135 10.5945 15.5085 10.7577 15.6728C10.9209 15.8371 11.1146 15.9674 11.3277 16.0563C11.5409 16.1452 11.7694 16.1909 12.0002 16.1909C12.2309 16.1909 12.4594 16.1451 12.6725 16.0562C12.8857 15.9673 13.0794 15.837 13.2425 15.6727C13.4057 15.5085 13.5351 15.3134 13.6234 15.0988C13.7116 14.8842 13.7571 14.6542 13.7571 14.4219C13.757 13.9527 13.5719 13.5028 13.2425 13.1711C12.913 12.8394 12.4661 12.653 12.0002 12.653Z" fill="#FAFAFA"/>
<path opacity="0.668924" d="M7.39216 5.86218C7.63621 5.86218 7.83406 5.66299 7.83406 5.41727C7.83406 5.17155 7.63621 4.97235 7.39216 4.97235C7.1481 4.97235 6.95026 5.17155 6.95026 5.41727C6.95026 5.66299 7.1481 5.86218 7.39216 5.86218Z" fill="#181818"/>
<path opacity="0.668924" d="M16.6078 5.86218C16.8519 5.86218 17.0497 5.66299 17.0497 5.41727C17.0497 5.17155 16.8519 4.97235 16.6078 4.97235C16.3638 4.97235 16.1659 5.17155 16.1659 5.41727C16.1659 5.66299 16.3638 5.86218 16.6078 5.86218Z" fill="#181818"/>
<path opacity="0.668924" d="M7.39216 19.0208C7.63621 19.0208 7.83406 18.8216 7.83406 18.5759C7.83406 18.3302 7.63621 18.131 7.39216 18.131C7.1481 18.131 6.95026 18.3302 6.95026 18.5759C6.95026 18.8216 7.1481 19.0208 7.39216 19.0208Z" fill="#181818"/>
<path opacity="0.668924" d="M16.6078 19.0208C16.8519 19.0208 17.0497 18.8216 17.0497 18.5759C17.0497 18.3302 16.8519 18.131 16.6078 18.131C16.3638 18.131 16.1659 18.3302 16.1659 18.5759C16.1659 18.8216 16.3638 19.0208 16.6078 19.0208Z" fill="#181818"/>
<defs>
<radialGradient id="paint0_radial_2_105" cx="0" cy="0" r="1" gradientUnits="userSpaceOnUse" gradientTransform="translate(12 1.00004) rotate(90) scale(22 22)">
<stop stop-color="#A5DFFF"/>
<stop offset="1" stop-color="#005385"/>
</radialGradient>
</defs>
</svg>

<svg xmlns="http://www.w3.org/2000/svg" width="24" height="24" fill="none"><path fill="url(#a)" fill-rule="evenodd" d="M9.596 1.114c.12 0 .234-.014.344-.046a31.637 31.637 0 0 1 4.307.011c1.301.102 2.561.384 3.78.847 2.025.834 3.412 2.28 4.158 4.34.427 1.24.679 2.514.756 3.824a27.94 27.94 0 0 1-.114 4.923 11.88 11.88 0 0 1-.894 3.32c-.85 1.843-2.229 3.114-4.135 3.813a15.624 15.624 0 0 1-4.765.825 21.413 21.413 0 0 1-5.453-.412c-3.312-.738-5.354-2.757-6.128-6.057a19.045 19.045 0 0 1-.447-4.511 18.49 18.49 0 0 1 .515-4.786c.812-3.086 2.77-4.998 5.877-5.736a13.953 13.953 0 0 1 2.2-.355Z" clip-rule="evenodd"/><path fill="#FAFAFA" d="M7.494 4C6.666 4 6 4.67 6 5.504v12.992C6 19.329 6.666 20 7.494 20h9.012c.828 0 1.494-.67 1.494-1.504V5.504C18 4.671 17.334 4 16.506 4H7.494ZM12 6.044a1.71 1.71 0 0 1 1.215.506 1.732 1.732 0 0 1 .504 1.224c0 .46-.181.9-.504 1.224a1.713 1.713 0 0 1-2.43 0 1.736 1.736 0 0 1 .557-2.823A1.71 1.71 0 0 1 12 6.044Zm0 4.67c.977 0 1.913.391 2.604 1.087a3.72 3.72 0 0 1 1.078 2.62 3.72 3.72 0 0 1-1.078 2.622 3.67 3.67 0 0 1-4.013.804 3.681 3.681 0 0 1-1.993-2.007 3.729 3.729 0 0 1 .799-4.04A3.67 3.67 0 0 1 12 10.716Zm0 1.939a1.747 1.747 0 0 0-1.242.518 1.77 1.77 0 0 0-.515 1.25 1.78 1.78 0 0 0 .515 1.252A1.757 1.757 0 0 0 12 16.19a1.746 1.746 0 0 0 1.242-.518 1.769 1.769 0 0 0 .515-1.251c0-.47-.185-.92-.514-1.25A1.751 1.751 0 0 0 12 12.652Z"/><path fill="#181818" d="M7.392 5.862c.244 0 .442-.199.442-.445a.443.443 0 0 0-.442-.445c-.244 0-.442.2-.442.445 0 .246.198.445.442.445ZM16.608 5.862c.244 0 .442-.199.442-.445a.443.443 0 0 0-.442-.445c-.244 0-.442.2-.442.445 0 .246.198.445.442.445ZM7.392 19.02c.244 0 .442-.198.442-.444a.443.443 0 0 0-.442-.445c-.244 0-.442.2-.442.445 0 .246.198.445.442.445ZM16.608 19.02c.244 0 .442-.198.442-.444a.443.443 0 0 0-.442-.445c-.244 0-.442.2-.442.445 0 .246.198.445.442.445Z" opacity=".669"/><defs><radialGradient id="a" cx="0" cy="0" r="1" gradientTransform="matrix(0 22 -22 0 12 1)" gradientUnits="userSpaceOnUse"><stop stop-color="#A5DFFF"/><stop offset="1" stop-color="#005385"/></radialGradient></defs></svg>
